X:253
T: Geistliche Lieder im Jacobston
N: A0611C
O: Europa, Mitteleuropa, Deutschland
N: M Praetorius Mus. Sion. Vii. No. 187
R: Romanze, Ballade, Lied, religioeses Lied
M: 4/2
L: 1/2
K: A
 |  |  | A2=cB | =cdee | e2
e2 | de=fe | dcd2
d2ed | =ccA2 | =G4
e2=cc | AAdc | d2
e2 | =cBAc | B2A2

